!!!!SEGMENT: pl-cz--ii-16--005_szlagorski-walenty--talnce-walc-5.krn
!!!cenid: 18xx:1069
!!!COM: Szlagórski, Walenty
!!!COM-rismID:
!!!CDT: 1801-1863/07/16
!!!CNT: Polish
!!!GTL: Tańce
!!!OTL: Walc 5
!!!PDT:
!!!AGN: Secular; Waltz
!!!SMS-siglum: PL-CZ
!!!SMS-shelfmark: II-16
!!!SMS-shelfwork: 005 G
!!!SMS-variant:
!!!SMS-altvar:
!!!NIFC-rismSourceID: 300001298
!!!NIFC-islandoraID: pl-cz:32636
!!!URL-pdf-islandora: https://repozytorium.nifc.pl/islandora/object/pl-cz%3A32636/datastream/PDF/view
!!!URL-scan:
!!!ONB-nifc: UWAGA: zbiór zawiera Walce nr 1-5, Galop, Mazury nr 1-4
!!!AIN: 1 bass 2 clars 1 cor 3 empty 1 flt 2 violn
!!!key:
**kern	**kern	**kern	**kern	**dynam	**kern	**dynam	**kern	**kern	**kern	**dynam	**kern	**dynam	**kern
*part10	*part9	*part8	*part7	*part7	*part6	*part6	*part5	*part4	*part3	*part3	*part2	*part2	*part1
*staff10	*staff9	*staff8	*staff7	*	*staff6	*	*staff5	*staff4	*staff3	*	*staff2	*	*staff1
*Ibass	*Ivioln	*Ivioln	*Iempty	*	*Iempty	*	*Icor	*Iempty	*Iclars	*	*Iclars	*	*Iflt
*I"Basso	*I"Violino 2do.	*I"Violino 1mo	*I"[Trąbka]	*	*I"Clarino in D.	*	*I"Corno 2do in D.	*I"Cornu 1mo in D	*I"Clarinetto 2do in A.	*	*I"Clarinetto 1mo in A.	*	*I"Flauto
*I'Vc.	*I'Vn II	*I'Vn I	*I'[T]	*	*I'Tr-ba in D	*	*I'C. II in D	*I'C. I in D	*I'Cl. II in A	*	*I'Cl. I in A	*	*I'Fl.
*clefF4	*clefG2	*clefG2	*clefG2	*	*clefG2	*	*clefG2	*clefG2	*clefG2	*	*clefG2	*	*clefG2
*	*	*	*	*	*ITrd-1c-2	*	*ITrd-1c-2	*ITrd-1c-2	*ITrd-2c-4	*	*ITrd-2c-4	*	*
*k[f#c#]	*k[f#c#]	*k[f#c#]	*k[f#c#]	*	*k[f#c#]	*	*k[f#c#]	*k[f#c#]	*k[f#c#]	*	*k[f#c#]	*	*k[f#c#]
*D:	*D:	*D:	*D:	*	*D:	*	*D:	*D:	*D:	*	*D:	*	*D:
*M3/4	*M3/4	*M3/4	*M3/4	*	*M3/4	*	*M3/4	*M3/4	*M3/4	*	*M3/4	*	*M3/4
*>[A,B,A]	*>[A,B,A]	*>[A,B,A]	*>[A,B,A]	*	*>[A,B,A]	*	*>[A,B,A]	*>[A,B,A]	*>[A,B,A]	*	*>[A,B,A]	*	*>[A,B,A]
=1	=1	=1	=1	=1	=1	=1	=1	=1	=1	=1	=1	=1	=1
*>A	*>A	*>A	*>A	*	*>A	*	*>A	*>A	*>A	*	*>A	*	*>A
*2\right	*2\right	*2\right	*2\right	*	*2\right	*	*	*	*	*	*	*	*
!!LO:TX:a:B:t=5:rj:problem:w każdym głosie przed pięciolinią
!	!LO:TX:a:t=P:problem=w źrodle znaki przykluczowe dla partii Violino 2do. to f#cn	!LO:TX:a:t=P:problem=w źrodle znaki przykluczowe dla partii Violino 1mo to f#cn	!	!	!	!	!	!	!	!	!	!	!
!	!	!LO:TX:a:t=P:problem=partia Violino 1mo zapisana razem z głosem "Trąbka" [partia trąbki uwzględniona w kodzie]	!	!	!	!	!	!	!	!	!	!	!
!	!	!	!LO:TX:a:t=P:problem=w źródle partia trąbki rozpisana bez uwzględnienia stroju	!	!	!	!	!	!	!	!	!	!
!	!	!	!	!	!	!	!LO:TX:a:t=P:problem=W źródle 16 taktów pauzy zapisane jako jedna pogrubiona kreska pozioma z '16' na górze	!	!	!	!	!	!
!	!	!	!	!	!	!	!LO:TX:a:Bi:t=16	!LO:TX:a:Bi:t=16	!LO:TX:a:Bi:t=8	!	!LO:TX:a:Bi:t=8	!	!LO:TX:a:Bi:t=16
4G\	4r	4r	2.d/	.	2.A/	p	0.r	0.r	0.r	.	0.r	.	0.r
4r	4d 4B/	4g/	.	.	.	.	.	.	.	.	.	.	.
4r	4d 4B/	4g/	.	.	.	.	.	.	.	.	.	.	.
=2	=2	=2	=2	=2	=2	=2	=2	=2	=2	=2	=2	=2	=2
4G\	4r	4r	2g/	.	2d/	.	.	.	.	.	.	.	.
4r	4d 4B/	4g/	.	.	.	.	.	.	.	.	.	.	.
4r	4d 4B/	4g/	4b/	.	4f#/	.	.	.	.	.	.	.	.
=3	=3	=3	=3	=3	=3	=3	=3	=3	=3	=3	=3	=3	=3
*	*rep	*	*	*	*	*	*	*	*	*	*	*	*
4G\	4r	4r	4d/	.	4A/	.	.	.	.	.	.	.	.
4r	4d 4B/	4g/	4g/	.	4d/	.	.	.	.	.	.	.	.
4r	4d 4B/	4g/	4b/	.	4f#/	.	.	.	.	.	.	.	.
*	*Xrep	*	*	*	*	*	*	*	*	*	*	*	*
=4	=4	=4	=4	=4	=4	=4	=4	=4	=4	=4	=4	=4	=4
*	*rep	*	*	*	*	*	*	*	*	*	*	*	*
4G\	4r	4r	2.dd\	.	2.a^</	.	.	.	.	.	.	.	.
4r	4d 4B/	4g/	.	.	.	.	.	.	.	.	.	.	.
4r	4d 4B/	4g/	.	.	.	.	.	.	.	.	.	.	.
*	*Xrep	*	*	*	*	*	*	*	*	*	*	*	*
=5	=5	=5	=5	=5	=5	=5	=5	=5	=5	=5	=5	=5	=5
*	*rep	*	*	*	*	*	*	*	*	*	*	*	*
4G\	4r	4r	2ff#\	.	2b/	.	0.r	0.r	0.r	.	0.r	.	0.r
4r	4d 4B/	4g/	.	.	.	.	.	.	.	.	.	.	.
4r	4d 4B/	4g/	4dd\	.	4a/	.	.	.	.	.	.	.	.
*	*Xrep	*	*	*	*	*	*	*	*	*	*	*	*
=6	=6	=6	=6	=6	=6	=6	=6	=6	=6	=6	=6	=6	=6
*	*rep	*	*	*	*	*	*	*	*	*	*	*	*
4G\	4r	4r	8b\L	.	8f#/L	.	.	.	.	.	.	.	.
.	.	.	8dd\J	.	8a/J	.	.	.	.	.	.	.	.
4r	4d 4B/	4g/	4g/	.	4d/	.	.	.	.	.	.	.	.
4r	4d 4B/	4g/	8b\L	.	8f#/L	.	.	.	.	.	.	.	.
.	.	.	8dd\J	.	8a/J	.	.	.	.	.	.	.	.
*	*Xrep	*	*	*	*	*	*	*	*	*	*	*	*
=7	=7	=7	=7	=7	=7	=7	=7	=7	=7	=7	=7	=7	=7
4D\	4r	4r	2.d/	.	2.A/	.	.	.	.	.	.	.	.
4d\	4d 4cn/	4f#/	.	.	.	.	.	.	.	.	.	.	.
4r	4d 4c/	4f#/	.	.	.	.	.	.	.	.	.	.	.
!	!	!	!	!	!LO:LB:g=original	!	!	!	!	!	!	!	!
=8	=8	=8	=8	=8	=8	=8	=8	=8	=8	=8	=8	=8	=8
*	*rep	*	*	*	*	*	*	*	*	*	*	*	*
4G\	4r	4r	4b/	.	4a/	.	.	.	.	.	.	.	.
4r	4d 4cny/	4f#/	4r	.	4r	.	.	.	.	.	.	.	.
4r	4d 4c/	4f#/	4d/	.	4A/	.	.	.	.	.	.	.	.
*	*Xrep	*	*	*	*	*	*	*	*	*	*	*	*
=9	=9	=9	=9	=9	=9	=9	=9	=9	=9	=9	=9	=9	=9
*	*	*	*	*	*	*	*	*	*2\right	*	*2\right	*	*
!	!	!	!	!	!	!	!	!	!	!LO:DY:b:rj	!	!LO:DY:b:rj	!
4G\	4r	4r	2.d/	.	2.A/	.	0.r	0.r	2.f#/	p	2.dd\	p	0.r
4r	4d 4B/	4g/	.	.	.	.	.	.	.	.	.	.	.
4r	4d 4B/	4g/	.	.	.	.	.	.	.	.	.	.	.
!	!	!LO:LB:g=original	!LO:LB:g=original	!	!	!	!	!	!	!	!	!	!
=10	=10	=10	=10	=10	=10	=10	=10	=10	=10	=10	=10	=10	=10
*	*rep	*	*	*	*	*	*	*	*	*	*	*	*
4G\	4r	4r	2g/	.	2d/	.	.	.	2.f#/	.	2.dd\	.	.
4r	4d 4B/	4g/	.	.	.	.	.	.	.	.	.	.	.
4r	4d 4B/	4g/	4b\	.	4f#/	.	.	.	.	.	.	.	.
*	*Xrep	*	*	*	*	*	*	*	*	*	*	*	*
=11	=11	=11	=11	=11	=11	=11	=11	=11	=11	=11	=11	=11	=11
*	*rep	*	*	*	*	*	*	*	*	*	*	*	*
4G\	4r	4r	4d/	.	4A/	.	.	.	4f#/	.	4dd\	.	.
4r	4d 4B/	4g/	4g/	.	4d/	.	.	.	4f#/	.	4dd\	.	.
4r	4d 4B/	4g/	4b/	.	4f#/	.	.	.	4f#/	.	4dd\	.	.
*	*Xrep	*	*	*	*	*	*	*	*	*	*	*	*
=12	=12	=12	=12	=12	=12	=12	=12	=12	=12	=12	=12	=12	=12
*	*rep	*	*	*	*	*	*	*	*	*	*	*	*
4G\	4r	4r	2.dd\	.	2.a/	.	.	.	2f#/	.	2dd\	.	.
4r	4d 4B/	4g/	.	.	.	.	.	.	.	.	.	.	.
4r	4d 4B/	4g/	.	.	.	.	.	.	4r	.	4r	.	.
*	*Xrep	*	*	*	*	*	*	*	*	*	*	*	*
=13	=13	=13	=13	=13	=13	=13	=13	=13	=13	=13	=13	=13	=13
*	*rep	*	*	*	*	*	*	*	*	*	*	*	*
!	!	!	!	!	!	!	!LO:TX:a:Bi:t=Fine	!LO:TX:a:Bi:t=Fine	!	!	!	!	!
!	!	!	!	!	!	!	!	!	!	!	!	!	!LO:TX:a:Bi:t=fine
!	!	!	!	!	!	!	!LO:TX:a:t=P:problem=w źródle fermata nad kreską repetycji	!	!	!	!	!	!
!	!	!	!	!	!	!	!LO:TX:a:t=P:problem=w źródle 'Fine' przed samą kreską repetycji	!	!	!	!	!	!
!	!	!	!	!	!	!	!	!LO:TX:a:t=P:problem=w źródle fermata nad kreską repetycji	!	!	!	!	!LO:TX:a:t=P:problem=w źródle fermata nad kreską repetycji
!	!	!	!	!	!	!	!	!LO:TX:a:t=P:problem=w źródle 'Fine' przed samą kreską repetycji	!	!	!	!	!LO:TX:a:t=P:problem=w źródle 'fine' przed samą kreską repetycji
4G|>\	4r	4r	2ee\	.	2b/	.	0.r	0.r	2.f#/	.	2.dd\	.	0.r
4r	4d 4B/	4g/	.	.	.	.	.	.	.	.	.	.	.
4r	4d 4B/	4g/	4dd\	.	4a/	.	.	.	.	.	.	.	.
*	*Xrep	*	*	*	*	*	*	*	*	*	*	*	*
=14	=14	=14	=14	=14	=14	=14	=14	=14	=14	=14	=14	=14	=14
*	*rep	*	*	*	*	*	*	*	*	*	*	*	*
4G\	4r	4r	8b\L	.	8f#/L	.	.	.	2.f#/	.	2.dd\	.	.
.	.	.	8dd\J	.	8a/J	.	.	.	.	.	.	.	.
4r	4d 4B/	4g/	4g/	.	4d/	.	.	.	.	.	.	.	.
4r	4d 4B/	4g/	8b\L	.	8f#/L	.	.	.	.	.	.	.	.
.	.	.	8dd\J	.	8a/J	.	.	.	.	.	.	.	.
*	*Xrep	*	*	*	*	*	*	*	*	*	*	*	*
!	!LO:LB:g=original	!	!	!	!	!	!	!	!	!	!	!	!
=15	=15	=15	=15	=15	=15	=15	=15	=15	=15	=15	=15	=15	=15
!	!	!	!	!	!	!	!	!	!LO:N:acc=-	!	!	!	!
4D\	4r	4r	4d/	.	4A/	.	.	.	4g/	.	4cc#/	.	.
4r	4d 4cny/	4f#/	8dd\L	.	8a/L	.	.	.	4g/	.	4cc#/	.	.
.	.	.	8dd\J	.	8a/J	.	.	.	.	.	.	.	.
4r	4d 4c/	4f#/	4d/	.	4a/	.	.	.	4g/	.	4cc#/	.	.
!LO:LB:g=original	!	!	!	!	!	!	!	!	!	!	!	!	!
=16	=16	=16	=16	=16	=16	=16	=16	=16	=16	=16	=16	=16	=16
4G\	4d 4B/	4g/	2g/	.	2d/	.	.	.	2f#/	.	2dd\	.	.
4GG/	4d 4B/	4g/	.	.	.	.	.	.	.	.	.	.	.
!LO:TX:a:t=P:problem=w źródle fermata nad kreską repetycji	!LO:TX:a:t=P:problem=w źródle fermata nad kreską repetycji	!	!	!	!	!	!	!	!	!	!	!	!
!	!	!	!	!	!LO:TX:a:Bi:t=fine	!	!	!	!	!	!	!	!
!LO:TX:a:Bi:t=Fine	!LO:TX:a:Bi:t=Fine	!	!LO:TX:a:Bi:t=Fine	!	!	!	!	!	!	!	!	!	!
!	!	!	!	!	!	!	!	!	!LO:TX:a:Bi:t=fine	!	!	!	!
4r	4r	4r	4r;>	.	4r	.	.	.	4r	.	4r	.	.
!	!	!LO:LB:g=original	!LO:LB:g=original	!	!	!	!	!	!LO:LB:g=original	!	!LO:LB:g=original	!	!
=17:|!	=17:|!	=17:|!	=17:|!	=17:|!	=17:|!	=17:|!	=17:|!	=17:|!	=17:|!	=17:|!	=17:|!	=17:|!	=17:|!
*>B	*>B	*>B	*>B	*	*>B	*	*>B	*>B	*>B	*	*>B	*	*>B
*	*	*	*	*	*	*	*2\right	*2\right	*	*	*	*	*2\right
!	!	!	!	!	!LO:TX:a:Bi:t=8	!	!	!	!	!	!	!	!
!	!	!	!	!LO:DY:b:rj	!	!	!	!	!	!LO:DY:b:rj	!	!LO:DY:b:rj	!
4D\	4r	2.ryy	4dd\	f	0.r	.	4r	4r	2.cc#/	ff	2.aa\	ff	4ddd\
4r	4a 4f#/	.	8a\L	.	.	.	4f#/	4dd\	.	.	.	.	8aa\L
.	.	.	8dd\J	.	.	.	.	.	.	.	.	.	8ddd\J
4r	4a 4f#/	.	4ff#\	.	.	.	4f#/	4dd\	.	.	.	.	4ddd\
=18	=18	=18	=18	=18	=18	=18	=18	=18	=18	=18	=18	=18	=18
4AA/	4r	2.ryy	2aa\	.	.	.	2.a/	2.ee\	2.cc#/	.	2.gg#\	.	2aaa\
4r	4a 4g/	.	.	.	.	.	.	.	.	.	.	.	.
4r	4a 4g/	.	4aa\	.	.	.	.	.	.	.	.	.	4aa\
=19	=19	=19	=19	=19	=19	=19	=19	=19	=19	=19	=19	=19	=19
4AA/	4r	2.ryy	4aa\	.	.	.	4a/	4ee\	4dd\	.	4gg\	.	4aa\
4A\	4a 4g/	.	4cccny\	.	.	.	4a/	4ee\	4dd\	.	4gg\	.	4ccc#\
4A\	4a 4g/	.	4eee\	.	.	.	4a/	4ee\	4dd\	.	4gg\	.	4eee\
=20	=20	=20	=20	=20	=20	=20	=20	=20	=20	=20	=20	=20	=20
4D\	4r	2.ryy	2fff#\	.	.	.	2a/	2dd\	2ee\	.	2aa\	.	2fff#\
4r	4a 4f#/	.	.	.	.	.	.	.	.	.	.	.	.
4r	4a 4f#/	.	4ddd\	.	.	.	4f#/	4dd\	4cc#\	.	4aa\	.	4ddd\
=21	=21	=21	=21	=21	=21	=21	=21	=21	=21	=21	=21	=21	=21
!	!	!	!	!	!LO:TX:a:Bi:t=Da Capo \nal fine	!	!	!	!	!	!	!	!
!	!	!	!	!	!LO:TX:a:t=P:problem=w źródle 'Da Capo \nal fine' przed samą kreską repetycji	!	!	!	!	!	!	!	!
!	!	!	!	!	!	!	!LO:TX:a:Bi:t=1	!LO:TX:a:Bi:t=1	!	!	!	!	!
4G\	4r	2.ryy	2bb\	.	0.r	.	2.r	2.r	2.b/	.	2.ff#\	.	2bb\
4r	4b 4e/	.	.	.	.	.	.	.	.	.	.	.	.
4r	4b 4e/	.	4eee\	.	.	.	.	.	.	.	.	.	4eee\
=22	=22	=22	=22	=22	=22	=22	=22	=22	=22	=22	=22	=22	=22
4A\	4r	2.ryy	4ddd\	.	.	.	2.dd\	2.ff#\	2.cc#/	.	2.ee\	.	4ddd\
4r	4a 4f#/	.	8aa\L	.	.	.	.	.	.	.	.	.	8aa\L
.	.	.	8ff#\J	.	.	.	.	.	.	.	.	.	8ff#\J
4r	4a 4f#/	.	4dd\	.	.	.	.	.	.	.	.	.	4dd\
=23	=23	=23	=23	=23	=23	=23	=23	=23	=23	=23	=23	=23	=23
4AA/	2a 2g/	2.ryy	2bb\	.	.	.	2a/	2ee\	2dd/	.	2gg\	.	2bb\
4A\	.	.	.	.	.	.	.	.	.	.	.	.	.
4A\	4a 4g/	.	4aa\	.	.	.	4a/	4ee\	4dd/	.	4gg\	.	4aa\
!	!	!	!	!	!	!	!LO:LB:g=original	!LO:LB:g=original	!	!	!	!	!
=24	=24	=24	=24	=24	=24	=24	=24	=24	=24	=24	=24	=24	=24
4D\	2a 2f#/	2.ryy	2dd\	.	.	.	2f#/	2dd\	2cc#/	.	2aa\	.	2dd\
4d\	.	.	.	.	.	.	.	.	.	.	.	.	.
!LO:TX:a:Bi:t=Da Capo al Fine	!LO:TX:a:Bi:t=Da Capo\nal Fine	!	!	!	!	!	!	!	!	!	!	!	!
!	!	!	!LO:TX:b:Bi:t=Da Capo al Fine	!	!	!	!	!	!	!	!	!	!
!	!	!	!	!	!	!	!LO:TX:a:Bi:t=Da Capo al Fine	!LO:TX:a:Bi:t=Da Capo al Fine	!LO:TX:a:Bi:t=Da Capo al Fine	!	!	!	!
!	!	!	!	!	!	!	!	!	!	!	!LO:TX:a:Bi:t=Da Capo\nal Fine	!	!LO:TX:a:Bi:t=Da Capo\nal Fine
4r	4r	.	4r	.	.	.	4r	4r	4ryy	.	4r	.	4r
==	==	==	==	==	==	==	==	==	==	==	==	==	==
*-	*-	*-	*-	*-	*-	*-	*-	*-	*-	*-	*-	*-	*-
!!!system-decoration: [(s1,s2,s3)][(s4,s5,s6)][(s7)][(s8,s9,s10)]
!!!RDF**kern: > = above
!!!RDF**kern: < = below
!!!RDF**kern: | = vertical stroke
!!!RDF**kern: N = linked
!!!RDF**kern: i = editorial accidental
!!!ENC: Berenika Jozajtis
!!!END: 2020-10-05
!!!EED: Wojciech Jakubiak-Danek
!!!EEV: 2021-11-03
